X:138
T:Copenhagen Waltz
O:No 138 William Clarke of Feltwell
M:3/8
L:1/16
K:C
e<g|f<a e<g d<f|e<g G2 e<g|d<f G2 B<d|c<e G2 e<g|f<a e<g d<f|e<g G2 e<g|d<f G2 B<d|c4::e<g|d<f G2 B<d|c<e G2 e<g|d<f G2 B<d|c<e G2 e<g|f<a e<g d<f|e<g G2 e<g|d<f G2 B<d|c4::g2|a2g2e2|c4g2|a2g2e2|d4g2|a2g2e2|{d}cBcege|{e}d^cdfBd|c4:|


